symbols/web/all_inbox/materialsymbolssharp/all_inbox_wght300grad200_20px.svg

<svg xmlns="http://www.w3.org/2000/svg" height="20" width="20"><path d="M6.896 13.167h9.833v-2.375h-1.958q-.5.77-1.281 1.198-.782.427-1.678.427-.895 0-1.656-.427-.76-.428-1.281-1.198H6.896Zm4.916-2.625q.667 0 1.136-.48.469-.479.469-1.124h3.312V3.333H6.896v5.584h3.354q0 .666.458 1.145.459.48 1.104.48Zm-6.791 4.5V1.458h13.583v13.584Zm-3.625 3.625V5.333h1.875v11.459h11.458v1.875Zm5.5-5.5H16.729Z"/></svg>

<svg xmlns="http://www.w3.org/2000/svg" height="20" width="20"><path d="M6.896 13.167H16.729V10.792H14.771Q14.271 11.562 13.49 11.99Q12.708 12.417 11.812 12.417Q10.917 12.417 10.156 11.99Q9.396 11.562 8.875 10.792H6.896ZM11.812 10.542Q12.479 10.542 12.948 10.062Q13.417 9.583 13.417 8.938H16.729V3.333H6.896V8.917H10.25Q10.25 9.583 10.708 10.062Q11.167 10.542 11.812 10.542ZM5.021 15.042V1.458H18.604V15.042ZM1.396 18.667V5.333H3.271V16.792H14.729V18.667ZM6.896 13.167H8.875Q9.396 13.167 10.156 13.167Q10.917 13.167 11.812 13.167Q12.708 13.167 13.49 13.167Q14.271 13.167 14.771 13.167H16.729Z"/></svg>
